img/icon_search.svg

<svg xmlns="http://www.w3.org/2000/svg" preserveAspectRatio="xMidYMid" width="16.687" height="16.688" viewBox="0 0 16.687 16.688"><defs><style>.cls-1{fill:#fff;fill-rule:evenodd}</style></defs><path d="M11.936 10.497h-.758l-.264-.26a6.166 6.166 0 0 0 1.497-4.03c0-3.425-2.778-6.2-6.205-6.2A6.202 6.202 0 0 0 0 6.207a6.202 6.202 0 0 0 10.24 4.703l.262.262v.755l4.773 4.76 1.423-1.422-4.762-4.768zm-5.73 0a4.294 4.294 0 0 1-4.298-4.29 4.294 4.294 0 0 1 4.297-4.293A4.293 4.293 0 0 1 10.5 6.206c0 2.37-1.922 4.29-4.295 4.29z" class="cls-1"/></svg>

<svg xmlns="http://www.w3.org/2000/svg" xmlns:xlink="http://www.w3.org/1999/xlink" preserveAspectRatio="xMidYMid" width="16.687" height="16.688" viewBox="0 0 16.687 16.688">
  <defs>
    <style>
      .cls-1 {
        fill: #fff;
        fill-rule: evenodd;
      }
    </style>
  </defs>
  <path d="M11.936,10.497 L11.178,10.497 L10.914,10.236 C11.845,9.151 12.411,7.746 12.411,6.206 C12.411,2.782 9.632,0.007 6.205,0.007 C2.777,0.007 -0.001,2.782 -0.001,6.206 C-0.001,9.629 2.777,12.404 6.205,12.404 C7.746,12.404 9.154,11.839 10.239,10.910 L10.502,11.172 L10.502,11.927 L15.275,16.688 L16.698,15.265 L11.936,10.497 ZM6.205,10.497 C3.832,10.497 1.908,8.576 1.908,6.206 C1.908,3.835 3.832,1.914 6.205,1.914 C8.578,1.914 10.501,3.835 10.501,6.206 C10.501,8.576 8.578,10.497 6.205,10.497 Z" class="cls-1"/>
</svg>
